X: 28
%
U:~=!turn!
T: Maise an taobh tuath
T: The Beauty of the North
C:Capt. Frasers coll.
C:Published about 1816
O:Scotland
B:Keith Norman MacDonald : "The Skye collection of the best reels & strathspeys extant" : 1887
Z:Ralph Palmer
R:Strathspey
M:C
L:1/8
K:Eb
E |\
G,<EE>F G>AB<c | C<C TF>E DB, B,2 | G,<EE>F G>AB<g | fc (e/d/).c/.B/ {/d}e2- e :|
g |\
{/d}e>gB<g e<gb>g | {/g}a>g{/g}f>e d<BB<g | e<gB>g e/f/g/a/ bg | {/g}af (e/d/).c/.B/ {/d}e2 eg |
g<eB<G e<BG<E | A<GF>E D<B, B,2 | G,<EE>A G<eB<g | fd (e/d/).c/.B/ {/d}e2- e |]


